assets/images/twitter.svg

<svg width="18" height="16" viewBox="0 0 18 16" fill="none" xmlns="http://www.w3.org/2000/svg">
<path fill-rule="evenodd" clip-rule="evenodd" d="M8.4609 4.63073L8.49867 5.25358L7.86914 5.17731C5.57765 4.88496 3.57574 3.89349 1.876 2.22835L1.04502 1.40213L0.830981 2.01226C0.377719 3.37234 0.667303 4.80869 1.6116 5.77473C2.11523 6.30859 2.00191 6.38486 1.13316 6.06708C0.830981 5.96539 0.566578 5.88913 0.541397 5.92726C0.453263 6.01624 0.755438 7.17294 0.99466 7.63054C1.32202 8.26609 1.98932 8.88893 2.71958 9.25755L3.33652 9.5499L2.60626 9.56262C1.90118 9.56262 1.876 9.57533 1.95155 9.84226C2.20336 10.6685 3.19802 11.5455 4.30599 11.9269L5.08661 12.1938L4.40672 12.6006C3.39947 13.1853 2.21595 13.5157 1.03243 13.5412C0.465853 13.5539 0 13.6047 0 13.6429C0 13.77 1.53606 14.4818 2.42999 14.7614C5.11179 15.5876 8.29722 15.2317 10.6894 13.8208C12.3892 12.8166 14.0889 10.821 14.8821 8.88893C15.3102 7.85934 15.7383 5.9781 15.7383 5.07562C15.7383 4.49091 15.7761 4.41465 16.4811 3.71554C16.8966 3.30879 17.2869 2.8639 17.3625 2.73679C17.4884 2.49528 17.4758 2.49528 16.8337 2.71137C15.7635 3.0927 15.6124 3.04186 16.1412 2.46986C16.5315 2.06311 16.9973 1.32587 16.9973 1.10978C16.9973 1.07165 16.8085 1.1352 16.5944 1.2496C16.3678 1.37671 15.8642 1.56738 15.4865 1.68178L14.8066 1.89786L14.1896 1.4784C13.8497 1.2496 13.3712 0.99538 13.1194 0.919114C12.4773 0.741159 11.4952 0.766581 10.9161 0.969958C9.34225 1.54195 8.34759 3.01643 8.4609 4.63073Z" fill="white"/>
</svg>

<svg width="18" height="16" fill="none" xmlns="http://www.w3.org/2000/svg"><path fill-rule="evenodd" clip-rule="evenodd" d="M8.46 4.63l.039.624-.63-.077c-2.291-.292-4.293-1.284-5.993-2.949l-.831-.826-.214.61c-.453 1.36-.164 2.797.78 3.763.504.534.39.61-.478.292-.302-.102-.566-.178-.592-.14-.088.09.214 1.246.454 1.704.327.635.994 1.258 1.725 1.627l.617.292-.73.013c-.706 0-.731.012-.655.28.251.825 1.246 1.703 2.354 2.084l.78.267-.68.407a7.09 7.09 0 01-3.374.94c-.566.013-1.032.064-1.032.102 0 .127 1.536.839 2.43 1.118 2.682.827 5.867.47 8.26-.94 1.7-1.004 3.399-3 4.192-4.932.428-1.03.856-2.91.856-3.813 0-.585.038-.661.743-1.36.416-.407.806-.852.881-.98.126-.24.114-.24-.528-.025-1.07.382-1.222.33-.693-.241.39-.407.856-1.144.856-1.36 0-.038-.189.025-.403.14-.226.127-.73.317-1.108.432l-.68.216-.616-.42c-.34-.228-.819-.483-1.07-.559-.643-.178-1.625-.152-2.204.051-1.574.572-2.568 2.046-2.455 3.66z" fill="#fff"/></svg>
